X:1
T:Title
%%score { ( 1 4 ) | ( 2 3 ) }
L:1/8
Q:1/4=100
M:4/4
K:G
V:1 treble nm="Grand Piano"
V:4 treble 
V:2 bass 
V:3 bass 
V:1
 [EG]2 [Ge]2 [Gc]2 [EG]2 | FGAB [Ec]2 [EG]2 | A2 A2 G2 [Ec]2 | [FB]2 [FA]2 [=Fd]4 | %4
w: F.~W.~Nichols * * *||||
 [EG]2 [Ge]2 [Gc]2 [EG]2 | FGAB [Ed]2 [Ec]2 | [^Ge]2 [GB]2 dcBA | G2 B2 [Ec]4 | %8
w: ||||
 [^Ge]2 [Ge]2 [Ge]3 [Bd] | [Ac]2 [^GB]2 [Ac]2 [Ae]2 | [Bd]2 [Ge]2 [Gd]3 [=FB] | [Fc]2 [DF]2 [DG]4 | %12
w: ||||
 [EG]2 [Ge]2 [Gc]2 [EG]2 | .e2 z2 z4 | d2 ^d2 e3 c | c2 B2 [Ec]4 |] %16
w: ||||
V:2
 [C,C]2 [G,C]2 [E,C]2 [C,C]2 | [G,B,]2 [G,D=F]2 [C,C]2 [C,C]2 | [=F,C]2 [F,C]2 [E,C]2 [C,G,]2 | %3
 [D,D]2 [D,C]2 [G,B,]4 | [C,G,]2 [G,C]2 [E,C]2 [C,C]2 | [G,B,]2 [G,D=F]2 [C,C]2 [C,C]2 | %6
 z4[K:treble] z2 .D2 | [G,CE]2 [G,D=F]2[K:bass] [C,C]4 | [E,B,]2 [E,B,]2 [D,B,]3 [^G,E] | %9
 [A,E]2 [E,E]2 [A,E]2 [A,C]2 | [D,D]2 [D,C]2 [D,B,]3 [D,^G,] | [D,A,]2 [D,C]2 [G,B,]4 | %12
 [C,G,]2 [G,C]2 [E,C]2 [C,C]2 | [D,C]2 [G,B,=F]2 [C,C]2 [C,C]2 | [A,CF]2 [^G,CF]2 [=G,CG]3 [G,EG] | %15
 [G,D=F]2 [G,DF]2[K:bass] [C,C]4 |] %16
V:3
 x8 | x8 | x8 | x8 | x8 | x8 | [E,B,]2 [E,E]2[K:treble] [A,EA]2 [=F,=F]-[F,CF] | x4[K:bass] x4 | %8
 x8 | x8 | x8 | x8 | x8 | x8 | x8 | x4[K:bass] x4 |] %16
V:4
 x8 | x8 | x8 | x8 | x8 | x8 | x8 | x8 | x8 | x8 | x8 | x8 | x8 | F-[Fd]AB [Ed]2 [Ec]2 | x8 | x8 |] %16

